docs/public/img/providers/microsoft-entra-id.svg

<?xml version="1.0" encoding="UTF-8"?>
<svg id="uuid-f8d4d392-7c12-4bd9-baff-66fbf7814b91" data-name="Layer 1" xmlns="http://www.w3.org/2000/svg" width="18" height="18" viewBox="0 0 18 18">
  <path d="m3.802,14.032c.388.242,1.033.511,1.715.511.621,0,1.198-.18,1.676-.487,0,0,.001,0,.002-.001l1.805-1.128v4.073c-.286,0-.574-.078-.824-.234l-4.374-2.734Z" fill="#225086"/>
  <path d="m7.853,1.507L.353,9.967c-.579.654-.428,1.642.323,2.111,0,0,2.776,1.735,3.126,1.954.388.242,1.033.511,1.715.511.621,0,1.198-.18,1.676-.487,0,0,.001,0,.002-.001l1.805-1.128-4.364-2.728,4.365-4.924V1s0,0,0,0c-.424,0-.847.169-1.147.507Z" fill="#6df"/>
  <polygon points="4.636 10.199 4.688 10.231 9 12.927 9.001 12.927 9.001 12.927 9.001 5.276 9 5.275 4.636 10.199" fill="#cbf8ff"/>
  <path d="m17.324,12.078c.751-.469.902-1.457.323-2.111l-4.921-5.551c-.397-.185-.842-.291-1.313-.291-.925,0-1.752.399-2.302,1.026l-.109.123h0s4.364,4.924,4.364,4.924h0s0,0,0,0l-4.365,2.728v4.073c.287,0,.573-.078.823-.234l7.5-4.688Z" fill="#074793"/>
  <path d="m9.001,1v4.275s.109-.123.109-.123c.55-.627,1.377-1.026,2.302-1.026.472,0,.916.107,1.313.291l-2.579-2.909c-.299-.338-.723-.507-1.146-.507Z" fill="#0294e4"/>
  <polygon points="13.365 10.199 13.365 10.199 13.365 10.199 9.001 5.276 9.001 12.926 13.365 10.199" fill="#96bcc2"/>
</svg>

<svg data-name="Layer 1" viewBox="0 0 18 18"><path fill="#225086" d="M3.8 14.03a3.1 3.1 0 0 0 3.4.02L9 12.93V17c-.29 0-.57-.08-.82-.23L3.8 14.03Z"/><path fill="#6df" d="M7.85 1.5.35 9.98c-.58.65-.43 1.64.33 2.1l3.12 1.96a3.1 3.1 0 0 0 3.4.02L9 12.94 4.64 10.2 9 5.28V1c-.42 0-.85.17-1.15.5Z"/><polygon fill="#cbf8ff" points="4.64 10.2 4.69 10.23 9 12.93 9 12.93 9 12.93 9 5.28 9 5.28 4.64 10.2"/><path fill="#074793" d="M17.32 12.08c.76-.47.9-1.46.33-2.11l-4.92-5.55a3.1 3.1 0 0 0-3.62.73l-.1.12 4.36 4.93L9 12.93V17c.29 0 .57-.08.82-.24l7.5-4.68Z"/><path fill="#0294e4" d="M9 1v4.28l.11-.13a3.05 3.05 0 0 1 3.62-.73L10.15 1.5C9.85 1.17 9.42 1 9 1Z"/><polygon fill="#96bcc2" points="13.37 10.2 13.37 10.2 13.37 10.2 9 5.28 9 12.93 13.37 10.2"/></svg>
